assets/icons/attach.svg

<svg width="21" height="20" viewBox="0 0 21 20" fill="none" xmlns="http://www.w3.org/2000/svg">
<path d="M11.0708 3.12006C9.11954 1.16707 5.95371 1.16707 4.00113 3.1197C2.09854 5.02225 2.04979 8.07659 3.85479 10.0382L4.01154 10.2027L11.345 17.5345L11.3754 17.5597C12.5931 18.6571 14.4714 18.6197 15.6442 17.4469C16.7434 16.3477 16.8452 14.6288 15.9495 13.4149C15.9301 13.3772 15.9065 13.3407 15.8789 13.3064L15.8342 13.2567L15.7618 13.1836L15.6442 13.0603L15.6418 13.0627L9.44538 6.8508C9.22379 6.62862 8.87654 6.60799 8.63163 6.7892L8.56146 6.84963C8.33929 7.07122 8.31863 7.41841 8.49988 7.66333L8.56029 7.73351L14.8892 14.0777C15.4872 14.8074 15.4456 15.886 14.7645 16.5672C14.0736 17.258 12.9739 17.2909 12.244 16.6658L4.88346 9.30715C3.42054 7.84241 3.42054 5.46805 4.88504 4.00358C6.30371 2.58488 8.57629 2.54055 10.0484 3.87057L10.1883 4.00358L10.1988 4.0155L18.1457 11.9624C18.3898 12.2065 18.7855 12.2065 19.0296 11.9624C19.2515 11.7406 19.2717 11.3933 19.0901 11.1487L19.0296 11.0786L11.0722 3.1197L11.0708 3.12006Z" fill="white" fill-opacity="0.66"/>
</svg>

<svg xmlns="http://www.w3.org/2000/svg" width="21" height="20" fill="none" viewBox="0 0 21 20"><path fill="#fff" fill-opacity=".66" d="M11.07 3.12a5 5 0 0 0-7.216 6.918l.158.165 7.333 7.332.03.025a3.103 3.103 0 0 0 4.575-4.145.6.6 0 0 0-.071-.109l-.045-.05-.072-.072-.118-.124-.002.003L9.445 6.85a.625.625 0 0 0-.813-.062l-.07.06a.625.625 0 0 0-.062.814l.06.07 6.33 6.345a1.858 1.858 0 0 1-2.646 2.588l-7.36-7.359a3.752 3.752 0 0 1 5.164-5.436l.14.133.01.012 7.948 7.946a.625.625 0 0 0 .944-.813l-.06-.07-7.958-7.96z"/></svg>
